!!!SOCIAL_FUNCTION:	love songs
!!!PDT:	1932
!!!OTL: No_135_Love_Song_(a).krn
!!!REG: Wisconsin
!!!LANG: Non-Tone
!!!LING_GROUP: Algonquin
**kern
*staff1
=1-
*clefF4
*k[]
*M3/4
2r
4F\
=2
4.F\
8f\
4c\
=3||
*M2/4
[2B-\
=4
4B-\]
4B-\
=5
4.G\
16B-\LL
16B-\JJ
=6
2G\
=7
[2F\
=8
2F\]
=9
4r
4F\
=10||
*M3/4
2F\
(4f\
=11
(2c\)
4F\)
=12||
*M2/4
[2B-\
=13
4.B-\]
16G\LL
16B-\JJ
=14
2G\
=15
[2F\
=16
2F\]
=17
4r
4F\
=18||
*M3/4
2f\
(4f\
=19||
*M2/4
2c\)
=20
4r
4F\
=21
[2B-\
=22
4.B-\]
16G\LL
16B-\JJ
=23
2G\
=24
[2F\
=25
2F\_
=26
2F\]
=27||
*M3/4
4F\
4r
4F\
=28
4.F\
8F\
4f\
=29||
*M2/4
[2c\
=30
(4c\]
4F\)
=31
2B-\
=32
[2G\
=33
2G\]
=34
[2F\
=35||
*M3/4
4F\]
4r
4G\
=36||
*M2/4
[2B-\
=37
4.B-\]
16G\LL
16B-\JJ
=38
2G\
=39
2G\
==
*-
